X:1
T:Kung Fu Panda Medley
T:Kung Fu Panda Medley
T:Lumpenhund Arr. Miles Thompson
C:Lumpenhund Arr. Miles Thompson
%%score 1 ( 2 3 ) ( 4 5 ) ( 6 7 )
L:1/8
Q:1/4=80
M:4/4
K:C
V:1 treble transpose=-2 nm="B♭ Trumpet" snm="B♭ Tpt."
V:2 bass nm="Euphonium" snm="Euph."
V:3 bass 
V:4 treble nm="Marimba" snm="Mrm."
V:5 treble 
V:6 treble transpose=-14 nm="Tenor Saxophone" snm="T. Sax."
V:7 treble transpose=-14 
V:1
[K:D] z8 | z8 | E4 G2 e2 | d4 B4 | d3 e d2 =c2 | E6 z2 | G4 B2 g2 | f4 d2 B2 | A2 B2 d3 B | A4 G4 | %10
 A,4 B,2 D2 | E4 e3 d | d4 B2 d2 | e4 =c3 B | B4 z4 | z8 | z8 | z8 | z8 | z8 | z8 | z8 | z8 | z8 | %24
 z4 z A/B/ A/E/G | E4 z A/B/ A/G/A/B/ | d4 z d/e/ d/B/A/B/ | A4 z A/B/ A/G/E/G/ | E8 | %29
[Q:1/4=120] z8 | z8 | z8 | z8 | G2 (3=FDF G2 (3FDF | (3GA_B (3=FDF GFD=C |[M:2/4] _B4 | %36
[M:4/4] G6- G_B/d/ | =f3 g/f/ d4 | z =CD=F G_B=cB | z8 | =CD C2 G,4 | (3G,_B,=C G2 =F2 GA | %42
 _BAG=F G2 DF | _BG B2 G4 | =cG c2 G=FGA | _BAB=c dBcd | =f2 d2 =c2 _B2 | =cdcG _B2 G2 | z8 | %49
 =cdc_B cd =f2- |[Q:1/4=96] f4 z4 | z8 | z8 | z =c/d/ c/G/_B G4 | z =c/d/ c/G/_B !fermata!G4 |] %55
V:2
 D,F,A,F, D,F,A,F, | D,F,A,F, D,F,A,F, | D,F,A,F, D,F,A,D | F,A,CA, F,A,CA, | D,G,_B,G, D,G,B,G, | %5
 _B,,D,F,_B,- B, z z2 | F,,8 | A,,8 | _B,,8 | C,4 C,G,CG, | z8 | z8 | z8 | z8 | z8 | z8 | z8 | z8 | %18
 z8 | F,8 | D,8 | z8 | z8 | z8 | z8 | D,/D,/D,/D,/ D,/D,/D,/D,/ D,/D,/D,/D,/ D,/D,/D,/D,/ | %26
 F,/F,/F,/F,/ F,/F,/F,/F,/ F,/F,/F,/F,/ F,/F,/F,/F,/ | %27
 G,/G,/G,/G,/ G,/G,/G,/G,/ G,/G,/G,/G,/ G,/G,/G,/G,/ | %28
 _B,/B,/B,/B,/ B,/B,/B,/B,/ B,/B,/B,/B,/ B,/B,/B,/B,/ | D2 D2 C2 C2 | z8 | z8 | z8 | z8 | z8 | %35
[M:2/4] F,,4 |[M:4/4] _A,,8 | C,2 C,2 F,,2 F,,2 | C,4 F,4 | C,3 F, F, .F,3 | _B,,2 _B,B, F,,2 C,2 | %41
 F,C,F,C, _A,C,F,C, | _B,,2 B,,2- B,,B,, B,,2 | _A,,3 A,, A,,A,,/A,,/ A,,A,, | %44
 F,3 F, F,F,/F,/ F,F, | _E,2 E,2 E,2 E,2 | _B,,4 _E,4 | F,,3 .C, C,2 z2 | z .C, C,2- C,G, C,2 | %49
 F,,2 C,G, C,2 z2 | F,8 | _A,/A,/A,/A,/ A,/A,/A,/A,/ A,/A,/A,/A,/ A,/A,/A,/A,/ | %52
 _B,/B,/B,/B,/ B,/B,/B,/B,/ _B,,4 | %53
 C/4[CF]/4[CF]/[CF]/[CF]/ [CF]/[CF]/[CF]/[CF]/ [_A,_D]/[A,D]/[A,D]/[A,D]/ [A,D]/[A,D]/[A,D]/[A,D]/ | %54
 C/4[CF]/4[CF]/[CF]/[CF]/ [CF]/[CF]/[CF]/[CF]/ z4 |] %55
V:3
 x8 | x8 | x8 | x8 | x8 | x8 | x8 | x8 | x8 | x8 | x8 | x8 | x8 | x8 | x8 | x8 | x8 | x8 | x8 | %19
 x8 | x8 | x8 | x8 | x8 | x8 | z4 z4 | z4 z4 | z4 z4 | z4 z4 | x8 | x8 | x8 | x8 | x8 | x8 | %35
[M:2/4] x4 |[M:4/4] x8 | x8 | x8 | x8 | x8 | x8 | x8 | x8 | x8 | x8 | x8 | x8 | x8 | x8 | x8 | %51
 _A,,4 A,,4 | _B,,4 z4 | F,4 _D,4 | F,4 !fermata!F,4 |] %55
V:4
 d8 | d8 | [Dd]8 | [Ff]8 | [Gg]8 | [_Bf]4 [B_b]fd'b | [Ff]8 | [Aa]8 | [_B_b]8 | [C,C]4 [C,C]G,CG, | %10
 [C,C]G,CG, [C,C]G,EG | _B,F_BF dFBF | [F,F]CFC ACFC | [G,G]DGD _BDGD | [D,D]A,DA, FA,DA, | %15
 _B,F_BF dFBF | A,EAE cEAE | _B,F_BF dFBF | A,EAE cEAE | z8 | x8 | %21
 F,/C/F/C/ A/C/F/C/ F,/C/F/C/ A/C/F/C/ | G,/D/G/D/ _B/D/G/D/ G,/D/G/D/ B/D/G/D/ | %23
 _B,/F/_B/F/ d/F/B/F/ C/G/c/G/ e/G/c/G/ | z8 | (3D,/F,/A,/(3D,/F,/A,/ (3D/F/A/(3d/f/a/ d'2 z z | %26
 (3F,/A,/C/(3F,/A,/C/ (3F/A/c/(3f/a/c'/ f'2 z z | (3F,/B,/D/(3G,/B,/D/ (3G/B/d/(3g/b/d'/ g'2 z z | %28
 (3D,/F,/_B,/(3D/F/_B/ (3d/f/_b/d' bfdB | z [fa]/[fa]/ [fa]2 [eg]/[eg]/[eg] z [_eg]/[eg]/ | %30
 [Fcf]2 (3cf_a (3_c'=c'_b (3afc | (3F_Ac (3f_ac' (3_c'=c'a (3fAc | %32
 (3_e'c'_b f(3F/_A/c/ f/c/A/F/ (3[_E_e][Cc][Ee] | [Fcf]2 (3_ece [Fcf]2 (3ece | %34
 (3[Ff][Gg][_A_a] (3[_E_e][Cc][Ee] [Fcf]4 |[M:2/4] z4 |[M:4/4] z8 | z8 | %38
 [CGc][CGc]/[CGc]/ [CGc]2 [Ff][_A_a][_B_b][Aa] | [fc'f'][cc'] [ff']2 [cc']2 [_A_a][_B_b] | %40
 [_B_b][cc'] [Bb]2 [Fcf]4 | z2 [Ff]2 [_E_e]2 [Ff][Gg] | [_A_a][Gg][Ff][_E_e] [Ff]2 [Cc][Ee] | %43
 [_A_a][Ff] [Aa]2 [Ff]4 | [_B_b][Ff] [Bb]2 [Fcf]4 | z8 | %46
 _e/_b/_e'/b/ e/b/e'/b/ e/b/e'/b/ e/c/_B/_A/ | [Fcf]>[Fcf] [Fcf]2 z2 [Fcf]/[Fcf]/[Fcf]/[Fcf]/ | %48
 [Fcf]3 [_B_e]- [Be][Fc] [Be]2 | [Fcf]>[Fcf] [Fcf]2 z2 [Fc_e]/[Fce]/[Fce]/[Fce]/ | z8 | z8 | z8 | %53
 z8 | z8 |] %55
V:5
 D8- | D8 | x8 | x8 | x8 | x8 | x8 | x8 | x8 | x8 | x8 | x8 | x8 | x8 | x8 | x8 | x8 | x8 | x8 | %19
 x8 | x8 | x8 | x8 | x8 | x8 | x8 | x8 | x8 | x8 | x8 | x8 | x8 | x8 | z2 _E2 z2 E2 | x8 | %35
[M:2/4] x4 |[M:4/4] x8 | x8 | x8 | x8 | x8 | x8 | x8 | x8 | x8 | x8 | x8 | x8 | x8 | x8 | x8 | x8 | %52
 x8 | x8 | x8 |] %55
V:6
[K:D] z8 | z8 | z8 | z8 | z8 | z8 | z8 | z8 | z8 | z8 | z8 | z8 | z8 | z8 | z4 B2 d2 | %15
 e2 g2 e2 d2 | B2 d2 A2 G2 | E2 G2 E2 D2 | B2 d2 A3 G | z4 z a/b/ a/e/g | e2 z2 z a/b/ a/g/a/b/ | %21
 z4 z d'/ z/ d'/ z/ z | z4 z a a2 | ge/g/- g/d/e/g/ d/e/g/a/- a3/2 z/ | z8 | z8 | z8 | z8 | z8 | %29
 z8 | z8 | z8 | z8 | z8 | z8 |[M:2/4] z4 |[M:4/4] z8 | z8 | z8 | G3 _B B .B3 | =c2 ec G2 G2 | %41
 GDGD _BDGD | =C2 G2- GG G2 | _E3 E EE/E/ EE | =c3 c cc/c/ cc | _B2 B2 B2 B2 | =F4 =f4 | %47
 G3 .d d2 z2 | z .d d2- dD d2 | G2 dD [Dd]2 z2 | .G2 z2 .G2 z2 | %51
 _B/B/B/B/ B/B/B/B/ B/B/B/B/ B/B/B/B/ | =c/c/c/c/ c/c/c/c/ =C4 | %53
 d/4[dg]/4[dg]/[dg]/[dg]/ [dg]/[dg]/[dg]/[dg]/ [_B_e]/[Be]/[Be]/[Be]/ [Be]/[Be]/[Be]/[Be]/ | %54
 d/4[dg]/4[dg]/[dg]/[dg]/ [dg]/[dg]/[dg]/[dg]/ !fermata!G4 |] %55
V:7
[K:D] x8 | x8 | x8 | x8 | x8 | x8 | x8 | x8 | x8 | x8 | x8 | x8 | x8 | x8 | x8 | x8 | x8 | x8 | %18
 x8 | x8 | x8 | d'4 z x/ e'/ x/ b/a/a/4b/4 | a4- a z/ b/ x/ g/d/d/4e/4 | x8 | x8 | x8 | x8 | x8 | %28
 x8 | x8 | x8 | x8 | x8 | x8 | x8 |[M:2/4] x4 |[M:4/4] x8 | x8 | x8 | x8 | x8 | x8 | x8 | x8 | x8 | %45
 x8 | x8 | x8 | x8 | x8 | z/ G/G/G/ G/G/G/G/ z/ G/G/G/ G/G/G/G/ | _B,4 B,4 | =C4 z4 | G4 _E4 | %54
 G4 z4 |] %55

